svg/u2602.svg

<svg viewBox="0 0 128 128" xmlns="http://www.w3.org/2000/svg">
  <g>
    <polygon points="60.2,96.55 59.89,53.73 65.46,54.04 65.77,98.87 " fill="#6AA5AD"/>
    <path d="M47.46,104.64c-3.27-0.16-4.94,2.31-4.52,6.93c0.42,4.62,3.14,11.63,12.6,11.45 c10.92-0.21,11.75-7.8,11.57-16.21c-0.12-5.85,0-10.48-0.31-10.69s-7.9-0.41-8.32,0.01c-0.42,0.42-0.11,9.56-0.21,11.76 s0.28,6.62-3.78,6.51c-3.15-0.09-3.57-2.73-3.57-3.99C50.93,109.16,51.66,104.85,47.46,104.64z" fill="#3F7377"/>
    <path d="M52.12,36.21l10.42-18.75c0,0-20.55-2.54-38.8,11.63C0.54,47.11,4.21,66.86,4.21,66.86 s8.84-8.42,16.07-7.78s16.29,9.39,16.29,9.39L52.12,36.21z" fill="#937EF3"/>
    <path d="M65.06,23.21l-1.49-5.75c0,0,20.87-0.23,36.42,9.96c26.73,17.52,23.78,37.08,23.78,37.08 s-5.8-8.08-18.54-7.51s-17.4,11.94-17.4,11.94L65.06,23.21z" fill="#5547F4"/>
    <path d="M87.86,68.12c0,0-1.16-19.12-5.6-28.95c-8.1-17.95-19.25-21.42-19.25-21.42s-13.42,6.6-20.48,22.87 s-5.85,27.76-5.85,27.76s10.86-12.41,26.67-10.7S87.86,68.12,87.86,68.12z" fill="#6E62ED"/>
    <path d="M59.11,18.23c-0.14-0.55-0.02-7.9-0.07-9.48c-0.07-2.34,1.92-3.83,3.71-3.78 c2.34,0.07,3.16,2.13,3.23,3.57s0.08,9.52,0.07,9.62c-0.09,0.84-1.32,1.64-3.5,1.65C60.96,19.81,59.3,18.99,59.11,18.23z" fill="#6CA4AB"/>
    <path d="M87.79,70.59c1.64-0.1,8.19-11.36,18.47-11.26c13.95,0.14,15.75,7.39,17.21,6.64 c1.61-0.82-0.76-3.83-2.87-6.01c-2.98-3.08-7.75-4.94-15.16-4.46c-10.79,0.7-17.75,10.27-17.75,10.27s-9.2-10.04-25.33-10.04 c-15.6,0-25.67,11.1-25.67,11.1s-5.1-9.02-17.51-9.24C8.22,57.41,3.48,66.24,4.25,67.01c0.77,0.77,6.61-6.23,14.8-5.88 c11.26,0.48,15.2,9.89,17.36,9.94c2.15,0.05,10.56-11.3,26.15-11.03C79.3,60.33,86.25,70.69,87.79,70.59z" fill="#004DAE"/>
  </g>
</svg>

<svg viewBox="0 0 128 128" xmlns="http://www.w3.org/2000/svg">
  <defs/>
  <path d="M60.2,96.55 L59.89,53.73 L65.46,54.04 L65.77,98.87 Z" fill="#6AA5AD"/>
  <path d="M47.46,104.64 C44.19,104.48 42.52,106.95 42.94,111.57 C43.36,116.19 46.08,123.2 55.54,123.02 C66.46,122.81 67.29,115.22 67.11,106.81 C66.99,100.96 67.11,96.33 66.8,96.12 C66.49,95.91 58.9,95.71 58.48,96.13 C58.06,96.55 58.37,105.69 58.27,107.89 C58.17,110.09 58.55,114.51 54.49,114.4 C51.34,114.31 50.92,111.67 50.92,110.41 C50.93,109.16 51.66,104.85 47.46,104.64 Z" fill="#3F7377"/>
  <path d="M52.12,36.21 L62.54,17.46 C62.54,17.46 41.99,14.92 23.74,29.09 C0.54,47.11 4.21,66.86 4.21,66.86 C4.21,66.86 13.05,58.44 20.28,59.08 C27.51,59.72 36.57,68.47 36.57,68.47 L52.12,36.21 Z" fill="#937EF3"/>
  <path d="M65.06,23.21 L63.57,17.46 C63.57,17.46 84.44,17.23 99.99,27.42 C126.72,44.94 123.77,64.5 123.77,64.5 C123.77,64.5 117.97,56.42 105.23,56.99 C92.49,57.56 87.83,68.93 87.83,68.93 L65.06,23.21 Z" fill="#5547F4"/>
  <path d="M87.86,68.12 C87.86,68.12 86.7,49 82.26,39.17 C74.16,21.22 63.01,17.75 63.01,17.75 C63.01,17.75 49.59,24.35 42.53,40.62 C35.47,56.89 36.68,68.38 36.68,68.38 C36.68,68.38 47.54,55.97 63.35,57.68 C79.16,59.39 87.86,68.12 87.86,68.12 Z" fill="#6E62ED"/>
  <path d="M59.11,18.23 C58.97,17.68 59.09,10.33 59.04,8.75 C58.97,6.41 60.96,4.92 62.75,4.97 C65.09,5.04 65.91,7.1 65.98,8.54 C66.05,9.98 66.06,18.06 66.05,18.16 C65.96,19 64.73,19.8 62.55,19.81 C60.96,19.81 59.3,18.99 59.11,18.23 Z" fill="#6CA4AB"/>
  <path d="M87.79,70.59 C89.43,70.49 95.98,59.23 106.26,59.33 C120.21,59.47 122.01,66.72 123.47,65.97 C125.08,65.15 122.71,62.14 120.6,59.96 C117.62,56.88 112.85,55.02 105.44,55.5 C94.65,56.2 87.69,65.77 87.69,65.77 C87.69,65.77 78.49,55.73 62.36,55.73 C46.76,55.73 36.69,66.83 36.69,66.83 C36.69,66.83 31.59,57.81 19.18,57.59 C8.22,57.41 3.48,66.24 4.25,67.01 C5.02,67.78 10.86,60.78 19.05,61.13 C30.31,61.61 34.25,71.02 36.41,71.07 C38.56,71.12 46.97,59.77 62.56,60.04 C79.3,60.33 86.25,70.69 87.79,70.59 Z" fill="#004DAE"/>
</svg>
